packages/assets/static/images/icons/bold/virus--bold.svg

<svg width="24" height="24" viewBox="0 0 24 24" xmlns="http://www.w3.org/2000/svg">
<g clip-path="url(#clip0_2084_3913)">
<path d="M10.1249 12.0005C9.7541 12.0005 9.39159 11.8905 9.08324 11.6845C8.7749 11.4785 8.53458 11.1856 8.39266 10.843C8.25075 10.5004 8.21362 10.1234 8.28597 9.75969C8.35831 9.39598 8.53689 9.06189 8.79911 8.79966C9.06134 8.53744 9.39543 8.35886 9.75914 8.28652C10.1229 8.21417 10.4999 8.2513 10.8425 8.39321C11.1851 8.53513 11.4779 8.77545 11.6839 9.08379C11.89 9.39214 11.9999 9.75465 11.9999 10.1255C11.9999 10.6228 11.8024 11.0997 11.4508 11.4513C11.0991 11.8029 10.6222 12.0005 10.1249 12.0005ZM15.7499 10.1255C15.3791 10.1255 15.0166 10.2355 14.7082 10.4415C14.3999 10.6475 14.1596 10.9403 14.0177 11.283C13.8758 11.6256 13.8386 12.0026 13.911 12.3663C13.9833 12.73 14.1619 13.0641 14.4241 13.3263C14.6863 13.5885 15.0204 13.7671 15.3841 13.8395C15.7479 13.9118 16.1249 13.8747 16.4675 13.7328C16.8101 13.5908 17.1029 13.3505 17.3089 13.0422C17.515 12.7338 17.6249 12.3713 17.6249 12.0005C17.6249 11.5032 17.4274 11.0263 17.0758 10.6747C16.7241 10.323 16.2472 10.1255 15.7499 10.1255ZM11.9999 13.8755C11.6291 13.8755 11.2666 13.9855 10.9582 14.1915C10.6499 14.3975 10.4096 14.6903 10.2677 15.033C10.1258 15.3756 10.0886 15.7526 10.161 16.1163C10.2333 16.48 10.4119 16.8141 10.6741 17.0763C10.9363 17.3385 11.2704 17.5171 11.6341 17.5895C11.9979 17.6618 12.3749 17.6247 12.7175 17.4828C13.0601 17.3408 13.3529 17.1005 13.5589 16.7922C13.765 16.4838 13.8749 16.1213 13.8749 15.7505C13.8749 15.2532 13.6774 14.7763 13.3258 14.4247C12.9741 14.073 12.4972 13.8755 11.9999 13.8755ZM23.6249 12.0005C23.6249 12.2989 23.5064 12.585 23.2954 12.796C23.0845 13.007 22.7983 13.1255 22.4999 13.1255H21.3074C21.1025 14.8262 20.4337 16.4378 19.3743 17.7839L20.2959 18.7045C20.5072 18.9159 20.626 19.2025 20.626 19.5014C20.626 19.8003 20.5072 20.087 20.2959 20.2983C20.0845 20.5096 19.7979 20.6284 19.499 20.6284C19.2001 20.6284 18.9135 20.5096 18.7021 20.2983L17.7815 19.3767C16.4357 20.4352 14.8248 21.1032 13.1249 21.308V22.5005C13.1249 22.7989 13.0064 23.085 12.7954 23.296C12.5845 23.507 12.2983 23.6255 11.9999 23.6255C11.7016 23.6255 11.4154 23.507 11.2044 23.296C10.9935 23.085 10.8749 22.7989 10.8749 22.5005V21.308C9.17423 21.103 7.56264 20.4343 6.2165 19.3749L5.29588 20.2964C5.19123 20.4011 5.067 20.4841 4.93027 20.5407C4.79354 20.5974 4.647 20.6265 4.499 20.6265C4.35101 20.6265 4.20446 20.5974 4.06774 20.5407C3.93101 20.4841 3.80677 20.4011 3.70213 20.2964C3.59748 20.1918 3.51447 20.0675 3.45783 19.9308C3.4012 19.7941 3.37205 19.6475 3.37205 19.4996C3.37205 19.3516 3.4012 19.205 3.45783 19.0683C3.51447 18.9316 3.59748 18.8073 3.70213 18.7027L4.62369 17.7821C3.56527 16.4362 2.89718 14.8254 2.69244 13.1255H1.49994C1.20157 13.1255 0.915422 13.007 0.704444 12.796C0.493465 12.585 0.374939 12.2989 0.374939 12.0005C0.374939 11.7021 0.493465 11.416 0.704444 11.205C0.915422 10.994 1.20157 10.8755 1.49994 10.8755H2.69244C2.8974 9.17478 3.56616 7.56319 4.62556 6.21705L3.704 5.29643C3.49266 5.08508 3.37393 4.79844 3.37393 4.49955C3.37392 4.35156 3.40307 4.20501 3.45971 4.06828C3.51634 3.93156 3.59935 3.80732 3.704 3.70268C3.80865 3.59803 3.93288 3.51502 4.06961 3.45838C4.20634 3.40175 4.35288 3.3726 4.50088 3.3726C4.79976 3.3726 5.08641 3.49133 5.29775 3.70268L6.21838 4.62424C7.5642 3.56582 9.17507 2.89773 10.8749 2.69299V1.50049C10.8749 1.20212 10.9935 0.915972 11.2044 0.704993C11.4154 0.494015 11.7016 0.375488 11.9999 0.375488C12.2983 0.375488 12.5845 0.494015 12.7954 0.704993C13.0064 0.915972 13.1249 1.20212 13.1249 1.50049V2.69299C14.8257 2.89795 16.4372 3.56671 17.7834 4.62611L18.704 3.70455C18.9153 3.49321 19.202 3.37447 19.5009 3.37447C19.7998 3.37447 20.0864 3.49321 20.2978 3.70455C20.5091 3.91589 20.6278 4.20254 20.6278 4.50143C20.6278 4.80031 20.5091 5.08696 20.2978 5.2983L19.3762 6.21893C20.4346 7.56474 21.1027 9.17562 21.3074 10.8755H22.4999C22.7983 10.8755 23.0845 10.994 23.2954 11.205C23.5064 11.416 23.6249 11.7021 23.6249 12.0005ZM19.1249 12.0005C19.1249 10.5913 18.7071 9.21375 17.9242 8.04205C17.1413 6.87035 16.0285 5.95712 14.7266 5.41785C13.4246 4.87857 11.992 4.73747 10.6099 5.01239C9.22781 5.28731 7.95825 5.9659 6.9618 6.96235C5.96535 7.9588 5.28676 9.22835 5.01184 10.6105C4.73692 11.9926 4.87802 13.4252 5.4173 14.7271C5.95657 16.029 6.8698 17.1418 8.0415 17.9247C9.2132 18.7076 10.5907 19.1255 11.9999 19.1255C13.889 19.1235 15.7001 18.3722 17.0359 17.0364C18.3716 15.7007 19.123 13.8895 19.1249 12.0005Z"/>
</g>
<defs>
<clipPath id="clip0_2084_3913">
<rect width="24" height="24"/>
</clipPath>
</defs>
</svg>

<svg viewBox="0 0 24 24" xmlns="http://www.w3.org/2000/svg" aria-hidden="true" fill="currentColor"><g clip-path="url(#a)"><path d="M10.125 12a1.875 1.875 0 1 1 0-3.75 1.875 1.875 0 0 1 0 3.75m5.625-1.874a1.875 1.875 0 1 0 0 3.75 1.875 1.875 0 0 0 0-3.75M12 13.876a1.875 1.875 0 1 0 0 3.75 1.875 1.875 0 0 0 0-3.75M23.625 12a1.125 1.125 0 0 1-1.125 1.125h-1.193a9.34 9.34 0 0 1-1.933 4.658l.922.92a1.127 1.127 0 0 1-1.594 1.594l-.92-.921a9.34 9.34 0 0 1-4.657 1.931V22.5a1.125 1.125 0 1 1-2.25 0v-1.192a9.34 9.34 0 0 1-4.658-1.933l-.921.921a1.126 1.126 0 0 1-1.838-1.228c.056-.136.14-.26.244-.365l.922-.92a9.34 9.34 0 0 1-1.932-4.658H1.5a1.125 1.125 0 1 1 0-2.25h1.192a9.34 9.34 0 0 1 1.934-4.658l-.922-.92a1.127 1.127 0 0 1 1.594-1.594l.92.921a9.34 9.34 0 0 1 4.657-1.931V1.5a1.125 1.125 0 0 1 2.25 0v1.193a9.34 9.34 0 0 1 4.658 1.933l.921-.921a1.127 1.127 0 0 1 1.594 1.593l-.922.92a9.34 9.34 0 0 1 1.931 4.658H22.5A1.125 1.125 0 0 1 23.625 12m-4.5 0A7.125 7.125 0 1 0 12 19.125a7.133 7.133 0 0 0 7.125-7.124"/></g><defs><clipPath id="a"><path d="M0 0h24v24H0z"/></clipPath></defs></svg>
